!!!ONB: MCCC : IJH0439_01 : Extracted Monophonic Melody
!!!COM: Haydn, Joseph
!!!OPR: String Quartet in E major
!!!OMV: 1
!!!SCT: Hob.III:25 ; Op.17 No.1
!!!ODT: 1771///
**kern
*thru
*k[f#c#g#d#]
*E:
*clefG
*M4/4
*MM152
8g#
=1
8g#
8b
8a
8f#
4e
8r
8g#
=2
8a
8b
8cc#
8e
4d#
8r
8B
=3
8f#
8a
8g#
8e
8cc#
4cc#
16dd#
16ee
=4
8b
16dd#
16ee
8b
16dd#
16ee
8b
8b
8b
16a
16g#
=5
8f#
4f#
8f#
8.f#
16g#
8a
8g#
=6
8f#
4f#
16a
16g#
4e
8r
8e
=7
8g#
8b
8a
8f#
4e
8r
8e
=8
8g#
8cc#
8ee
8gg#
4cc#
8b#
8ff#
=9
8dd#
8b#
8g#
8f#
4f#
8e
8g#
=10
8b#
8cc#
8ee
8gg#
4b
8a#
8ee
=11
8cc#
8a#
8f#
8a#
4a#
8b
8ff#
=12
8dd#
8b
8f#
8b#
4b#
8cc#
8gg#
=13
8ee
8cc#
8a#
8e
8d#
4b
8b[
=14
8b]
4b
4b
4b
8b
=15
8b
8a#
8a#
8a#
4.a#
16b#
16cc#
=16
8cc#
8b#
8b#
8b#
4.b#
16cc#
16dd#
=17
8dd#
8cc#
8cc#
8cc#
8cc#
8gg#
16ff#
16ee
16dd#
16cc#
=18
4b
16a#
16f#
8f#
6..cc#[
48cc#]
16f#
8f#
=19
16ee
16cc#
8cc#
16aa#
16ff#
8ff#
16ccc#
16aa#
8aa#
4eee[
=20
8eee]
8ddd#
8ccc#
8bb
8aa#
8gg#
8ff#
8ee
=21
8dd#
8cc#
8b
8a#
8g#
8f#
4e#
=22
4.f#
8e#
4.f#
8e#
=23
3..f#[
24f#]
8d#
8e
8f#
=24
8g#
8a#
8b
8cc#
8dd#
8cc#
8dd#
8ee
=25
16ee#
16ff#
16dd#
16b
16a#
16f#
16ee
16cc#
16ee#
16ff#
16dd#
16b
16a#
16f#
16ee
16cc#
=26
16ee#
16ff#
16dd#
16b
16aa#
16bb
16b
16aa
16ff##
16gg#
16e
16ee
16gg#
16ee
16ccc#
16aa#
=27
8bb
8ccc#
8ddd#
8eee
8fff#
8ggg#
8aaa
8aaa
=28
2.aaa
4r
=29
8.gg#
16ff##
16gg#
16ff##
16gg#
16ff##
8gg#
8gg#
8ff#
8ee
=30
16dd#
8.ff#
8ff#
32ee
32dd#
32cc#
32b
2cc#
=31
24ff#
24gg#
24ff#
24dd#
24cc#
24b
24a#
24g#
24f#
24ee
24dd#
24cc#
24ff#
24gg#
24ff#
24dd#
24cc#
24b
24a#
24g#
24f#
24ee
24dd#
24cc#
=32
24ff#
24gg#
24ff#
24dd#
24cc#
24b
24bb
24aa#
24bb
24ff#
24gg#
24aa
24gg#
24ff#
24gg#
24g#
24f#
24e
24gg#
24ff#
24ee
24eee
24ccc#
24aa#
=33
24bb
24bb
24bb
24ccc#
24ccc#
24ccc#
24ddd#
24ddd#
24ddd#
24eee
24eee
24eee
24fff#
24fff#
24fff#
24ggg#
24ggg#
24ggg#
24aaa
24aaa
24aaa
24aaa
24aaa
24aaa
=34
2.aaa
4r
=35
8.gg#
16ff##
16gg#
16ff##
16gg#
16ff##
8gg#
8gg#
8ff#
8ee
=36
2dd#
2cc#
=37
2b#
8b
8cc#
8dd#
8b
=38
2a#
8a
8b
8cc#
8a
=39
4g#[
32g#]
32a
32b
32cc#
32dd#
32ee
32ff#
64gg#
64aa#
4bb
16aa#
16gg#
16ff#
16ee
=40
16dd#
8.ff#
8ff#
32ee
32dd#
32cc#
32b
2cc#
=41
4.b
8dd#
8ee
8ff#
8gg#
8a#
=42
4.b
8d#
8e
8f#
8g#
8A#
=43
2A#
4B
4r
=44
3..r
24r
8ddd
8ccc#
8bb
=45
4aa
4.r
8aa
8gg#
8ff#
=46
4ee
4.r
8ee
8dd#
8cc#
=47
8b
16ff##
16gg#
4.dd#
16aa#
16bb
4dd#[
=48
8dd#]
16ccc##
16ddd#
4.dd#
8ccc#
8bb
8aa#
=49
4.bb
8aa#
8gg#
8ff#
8ee
8dd#
=50
8dd#
8cc##
4.cc##
8bb
8aa#
8cc##
=51
8ee#
8dd#
4.dd#
8ff#
8dd#
8cc#
=52
8cc#
8b#
4.b#
8dd#
8gg#
8b#
=53
8dd#
8cc#
4.cc#
8cc#
8dd#
8ee
=54
8ee
8dd#
4.dd#
8dd#
8ee
8ff#
=55
24ee
24gg#
24ff#
24ee
24dd#
24cc#
24b#
24a#
24g#
24ff#
24ee
24dd#
24ee
24gg#
24ff#
24ee
24dd#
24cc#
24b#
24a#
24g#
24ff#
24ee
24dd#
=56
24ee
24gg#
24ff#
24ee
24dd#
24ee
24ccc#
24bb
24ccc#
24cc#
24gg#
24bb
8aa
8fff#
8eee
8ddd#
=57
2ccc#
2ddd#
=58
4ccc#
8.ccc#
16ccc#
4ccc#
4r
=59
4e
8.e
16e
4e
4r
=60
2e
2d
=61
8c#
8e#
8f#
8b#
8cc#
8g#
8a
8f#
=62
2e
4d#
8r
8e
=63
8g#
8b
8a
8f#
4e
8r
8gg#
=64
8aa
8bb
8ccc#
8ee
4dd#
8r
8dd#
=65
8gg#
8aa
8bb
8dd#
4cc#
8r
8cc#
=66
8ff#
8gg#
8aa
8cc#
4b
8r
8b
=67
8ee
8ff#
8gg#
8a
8dd#
8ee
8ff#
8b
=68
8ee
8ff#
8gg#
8gg#
2ff#[
=69
2ff#]
2ee[
=70
2ee]
2dd#[
=71
2dd#]
2cc#[
=72
2cc#]
2b[
=73
2b]
2ee[
=74
2ee]
4dd#
4ee
=75
4ff#
8.aa
16aa
4aa
8r
8e
=76
8g#
8b
8a
8f#
4e
8r
8e
=77
8a
8b
8cc#
8e
4d#
8r
8B
=78
8f#
8a
8g#
8e
8cc#
4cc#
16dd#
16ee
=79
8b
16dd#
16ee
8b
16dd#
16ee
8b
8b
8b
16a
16g#
=80
8f#
4f#
8f#
8.f#
16g#
8a
8g#
=81
8f#
4f#
16a
16g#
4e
8r
16b
16g#
=82
8f#
4f#
8f#
8.f#
16g#
8a
8g#
=83
8f#
4f#
4b
4e
8cc#[
=84
8cc#]
16b
16a
16g#
16f#
16e#
16f#
16e#
16f#
16e#
16f#
8c#
8f#
=85
4e
16d#
16B
8B
6..f#[
48f#]
16B
8B
=86
16a
16f#
8f#
16dd#
16b
8b
16ff#
16dd#
8dd#
4aa[
=87
8aa]
8gg#
8ff#
8ee
8dd#
8ccc#
8bb
8aa
=88
8gg#
8ff#
8ee
8dd#
8cc#
8b
4a#
=89
4.b
8a#
4.b
8a#
=90
3..b[
24b]
8g#
8a
8b
=91
8cc#
8dd#
8ee
8ff#
8gg#
8ff#
8gg#
8aa
=92
16aa#
16bb
16gg#
16ee
16dd#
16b
16aa
16ff#
16aa#
16bb
16gg#
16ee
16dd#
16b
16aa
16ff#
=93
16aa#
16bb
16gg#
16ee
16dd#
16ee
16dd
16b
16b#
16cc#
16A
16a
16cc#
16a
16ff#
16dd#
=94
8ee
8ff#
8gg#
8aa
8bb
8ccc#
8ddd
8ddd
=95
2ddd[
4ddd]
4r
=96
8.ccc#
16bb#
16ccc#
16bb#
16ccc#
16bb#
8ccc#
8ccc#
8bb
8aa
=97
16gg#
8.bb
8bb
32aa
32gg#
32ff#
32ee
2ff#
=98
24gg#
24bb
24aa
24gg#
24ff#
24ee
24dd#
24cc#
24b
24aa
24gg#
24ff#
24gg#
24bb
24aa
24gg#
24ff#
24ee
24dd#
24cc#
24b
24aa
24gg#
24ff#
=99
24gg#
24bb
24aa
24gg#
24ff#
24ee
24dd
24ff#
24ee
24dd
24cc#
24b
24cc#
24b
24cc#
24c#
24B
24A
24cc#
24b
24a
24aa
24ff#
24dd#
=100
24ee
24ee
24ee
24ff#
24ff#
24ff#
24gg#
24gg#
24gg#
24aa
24aa
24aa
24bb
24bb
24bb
24ccc#
24ccc#
24ccc#
24ddd
24ddd
24ddd
24ddd
24ddd
24ddd
=101
2ddd[
4ddd]
4r
=102
8.ccc#
16bb#
16ccc#
16bb#
16ccc#
16bb#
8ccc#
8ccc#
8bb
8aa
=103
2gg#
2ff#
=104
2ee#
8ee
8ff#
8gg#
8ee
=105
2dd#
8dd
8ee
8ff#
8dd
=106
12..cc#[
96cc#]
32a
32b
32cc#
32dd
32ee
32ff#
32gg#
32aa
32bb
32ccc#
32ddd#
8eee
8ccc#
8bb
8aa
=107
16gg#
8.bb
8bb
32aa
32gg#
32ff#
32ee
2ff#
=108
4.ee
8gg#
8aa
8bb
8ccc#
8dd#
=109
4.ee
8g#
8a
8b
8cc#
8d#
=110
2d#
4e
4r
==
*-
